X: 3
T: Deck the Halls (harmony)
M: 4/4
C: English Carol
K: D clef=alto middle=c
L: 1/4
|: !f!vB>d d d | B d d B | d d d>c | B A d2 | vB>d d d |
b d d b | d d d>c | b a d2 | !mf!vd>d d d | d>f g d |
g f B/d/ e | d ^c d2 | !ff!vB>d d d | B d d g |
g/g/ g/g/ g>e | d d d2 :| v"ritard"c/c/ c/c/ B>a | g f d2 |]

